!!!!SEGMENT: pl-kk--kk-i-389--001-006_kottritsch-franciszek--missa-no-1-benedictus.krn
!!!cenid: 17xx:2457
!!!COM: Kottritsch, Franciszek
!!!COM-rismID: pe30040598
!!!CDT: ~1727-1787
!!!CNT:
!!!OPR: [Missa] No. 1.
!!!OTL: Benedictus
!!!OMV: 006
!!!PDT:
!!!AGN: Sacred; Mass
!!!YEC: Copyright 2022 Narodowy Instytut Fryderyka Chopina (https://polishscores.org)
!!!YEM: License CC-BY-4.0 (https://creativecommons.org/licenses/by/4.0)
!!!SMS-siglum: PL-Kk
!!!SMS-shelfmark: Kk.I.389
!!!SMS-variant:
!!!SMS-altvar:
!!!SMS-shelfwork: 001-006 M
!!!NIFC-rismSourceID: 1001146182
!!!NIFC-rismChildID: 1001146200
!!!NIFC-islandoraID: pl-kk:6976
!!!URL-pdf-islandora: https://repozytorium.nifc.pl/islandora/object/pl-kk%3A6976/datastream/PDF/view
!!!URL-scan: https://polish.musicsources.pl/pl/lokalizacje/galeria/rekopisy/5999/1 @EN{Scan on Polish Music Sources Website} @PL{Skany w portalu Dziedzictwo Muzyki Polskiej w otwartym dostępie}
!!!IIIF:
!!!ONB-nifc: UWAGA: S – skan 1-3, A – 20-22, T – 39-41 , B – 58-60. Części Ms
!!!OMD:
!!!AIN: 1 alto 1 bass 1 soprn 1 tenor
!!!key: a
**kern	**text	**kern	**text	**kern	**text	**kern	**text
*part4	*part4	*part3	*part3	*part2	*part2	*part1	*part1
*staff4	*staff4	*staff3	*staff3	*staff2	*staff2	*staff1	*staff1
*ICvox	*	*ICvox	*	*ICvox	*	*ICvox	*
*Ibass	*	*Itenor	*	*Ialto	*	*Isoprn	*
*I"Basso.	*	*I"Tenore.	*	*I"Alto.	*	*I"Soprano.	*
*I'B	*	*I'T	*	*I'A	*	*I'S	*
*clefF4	*	*clefC4	*	*clefC3	*	*clefC1	*
*k[]	*	*k[]	*	*k[]	*	*k[]	*
*a:	*	*a:	*	*a:	*	*a:	*
*M3/2	*	*M3/2	*	*M3/2	*	*M3/2	*
=1	=1	=1	=1	=1	=1	=1	=1
!LO:TX:a:t=2	!	!LO:TX:a:t=1.	!	!	!	!LO:TX:a:t=1.	!
0.r	.	1.r	.	2A/	Be-	1.r	.
.	.	.	.	2c/	.	.	.
.	.	.	.	4B/	.	.	.
.	.	.	.	4A/	-ne-	.	.
=2	=2	=2	=2	=2	=2	=2	=2
*	*	*	*	*2\right	*	*2\right	*
.	.	2G#X/	Be-	2e\	-dic-	2b\	Be-
.	.	2B/	.	2e\	-tus	2dd\	.
*	*	*	*	*	*	*4\right	*
.	.	4A/	.	2e\	qui	4cc\	.
.	.	4G#/	-ne-	.	.	4b\	-ne-
=3	=3	=3	=3	=3	=3	=3	=3
2r	.	4A/	-dic-	1.e	ve-	(4cc\	-dic-
.	.	4G#X/	.	.	.	4b\)	.
*	*	*2\right	*	*	*	*	*
2r	.	2A\	-tus	.	.	2cc\	-tus
*2\right	*	*	*	*	*	*	*
2G#X\	qui	2B\	qui	.	.	2dd\	qui
=4	=4	=4	=4	=4	=4	=4	=4
2A\	ve-	2A/	ve-	2e\	.	2cc\	ve-
2E\	-nit	2G#X/	-nit	2e\	-nit	2b\	-nit
2r	.	2r	.	2r	.	2r	.
!	!	!	!	!LO:LB:g=original	!	!	!
=5	=5	=5	=5	=5	=5	=5	=5
!LO:TX:a:t=2	!	!LO:TX:a:t=1.	!	!	!	!LO:TX:a:t=1.	!
0.r	.	1.r	.	2c\	Be-	1.r	.
*	*	*	*	*4\right	*	*	*
.	.	.	.	4f\	.	.	.
.	.	.	.	4e\	.	.	.
.	.	.	.	4d\	.	.	.
.	.	.	.	4c\	-ne-	.	.
!	!	!LO:LB:g=original	!	!	!	!LO:LB:g=original	!
=6	=6	=6	=6	=6	=6	=6	=6
.	.	2B\	Be-	2g\	-dic-	2dd\	Be-
.	.	2d\	.	2g\	-tus	2ff\	.
*	*	*4\right	*	*	*	*	*
.	.	4c\	.	2g\	qui	4ee\	.
.	.	4B\	-ne-	.	.	4dd\	-ne-
=7	=7	=7	=7	=7	=7	=7	=7
!	!	!	!	!LO:N:vis=1g	!	!	!
2r	.	4c\	-dic-	1.g	ve-	4ee\	-dic-
.	.	4B\	.	.	.	4dd\	.
2r	.	2c\	-tus	.	.	2ee\	-tus
2Gn\	qui	2d\	qui	.	.	2ff\	qui
!LO:LB:g=original	!	!	!	!	!	!	!
=8	=8	=8	=8	=8	=8	=8	=8
2c\	ve-	2c\	ve-	2g\	.	2ee\	ve-
2G\	-nit	2B\	-nit	2g\	-nit	2dd\	-nit
2r	.	2r	.	2r	.	2r	.
=9	=9	=9	=9	=9	=9	=9	=9
1G#X	Be-	2B\	Be-	1fn	Be-	1dd	Be-
.	.	1B	-ne-	.	.	.	.
2G#\	-ne-	.	.	2f\	-ne-	2dd\	-ne-
=10	=10	=10	=10	=10	=10	=10	=10
2A\	-dic-	2c\	-dic-	2e\	-dic-	2cc\	-dic-
2B\	-tus	2e\	-tus	2d\	-tus	2b\	-tus
2c\	qui	2e\	qui	2c\	qui	2a\	qui
!	!	!	!	!LO:LB:g=original	!	!	!
=11	=11	=11	=11	=11	=11	=11	=11
2d\	ve-	2e\	ve-	2B/	ve-	2g#X\	ve-
2c\	-nit	2e\	-nit	2c/	-nit	2a\	-nit
2B\	in	2e\	in	2d\	in	2b\	in
!	!	!LO:LB:g=original	!	!	!	!LO:LB:g=original	!
=12	=12	=12	=12	=12	=12	=12	=12
2.A\	no-	2.c\	no-	2.e\	no-	2.cc\	no-
*4\right	*	*	*	*	*	*	*
4B\	-mi-	4d\	-mi-	4d\	-mi-	4b\	-mi-
2c\	-ne	2e\	-n[e]	2c\	-ne	2a\	-ne
=13	=13	=13	=13	=13	=13	=13	=13
2D\	Do-	1A	Do-	4f\	Do-	4dd\	Do-
.	.	.	.	4d\	.	4b\	.
2E\	.	.	.	2c/	.	2a\	.
2E\	-mi-	2e\	-mi-	2B/	-mi-	2g#X\	-mi-
!LO:LB:g=original	!	!	!	!	!	!	!
=14	=14	=14	=14	=14	=14	=14	=14
1AA	-ni	1e	-ni	1c	-ni	1a	-ni,
2r	.	2r	.	2r	.	2r	.
=15	=15	=15	=15	=15	=15	=15	=15
1G#X	Be-	1B	Be-	1fn	Be-	1dd	Be-
2G#\	-ne-	2B\	-ne-	2f\	-ne-	2dd\	-ne-
=16	=16	=16	=16	=16	=16	=16	=16
2A\	-dic-	2c\	-dic-	2e\	-dic-	2cc\	-dic-
2B\	-tus	2e\	-tus	2d\	-tus	2b\	-tus
2c\	qui	2e\	qui	2c\	qui	2a\	qui
=17	=17	=17	=17	=17	=17	=17	=17
2d\	ve-	2e\	ve-	2B/	ve-	2g#X\	ve-
!	!	!	!	!LO:LB:g=original	!	!	!
=-	=-	=-	=-	=-	=-	=-	=-
2c\	-nit	2e\	-nit	2c\	-nit	2a\	-nit
2B\	in	2e\	in	2d\	in	2b\	in
=18	=18	=18	=18	=18	=18	=18	=18
2.A\	no-	2.c\	no-	2.e\	no-	2.cc\	no-
4B\	-mi-	4d\	-mi-	4d\	-mi-	4b\	-mi-
2c\	-ne	2e\	-ne	2c\	-ne	2a\	-ne
!	!	!LO:LB:g=original	!	!	!	!LO:LB:g=original	!
=19	=19	=19	=19	=19	=19	=19	=19
2D\	Do-	2f\	Do-	4f\	Do-	4dd\	Do-
.	.	.	.	4d\	.	4b\	.
2E\	.	2e\	.	2c/	.	2a\	.
2E\	-mi-	2e\	-mi-	2B/	-mi-	2g#X\	-mi-
=20	=20	=20	=20	=20	=20	=20	=20
2A\	-ni,	2e\	-ni	2c\	ni	2a\	-ni
2G#X\	be-	2B\	be-	2f\	Be-	2dd\	be-
2A\	-ne-	2A\	-ne-	2e\	-ne-	2cc\	-ne-
!LO:LB:g=original	!	!	!	!	!	!	!
=21	=21	=21	=21	=21	=21	=21	=21
1.E	-dic-	1A	-dic-	1.e	-dic-	1cc	-dic-
.	.	2G#X/	.	.	.	2b\	.
=22	=22	=22	=22	=22	=22	=22	=22
!LO:TX:b:i:t=Osanna Da Capo.	!	!LO:TX:b:i:t=Osanna Da Capo	!	!LO:TX:b:i:t=Osanna Da Capo.	!	!LO:TX:b:i:t=Osanna Da Capo.	!
1.AA	-tus.	1.A	-tus.	1.e	-tus.	1.cc	-tus.
==	==	==	==	==	==	==	==
*-	*-	*-	*-	*-	*-	*-	*-
!!!system-decoration: [(s1,s2,s3,s4)]
!!!ENC: Filip Voros
!!!END: 2023-11-04
!!!EED: Marta Chmielewska
!!!EEV: 2023-11-26
